X:27
T:Hpps simple chords 51
M:3/4
L:1/8
K:D
f>e [dD,F,A,]>c d>B | A2 G>F [EG,B,D]>E | F>G A2 B>c | [dD,F,A,]>B A>A d>d | e>c [d2D,2F,2A,2] f2 |
d2 f>e [dD,F,A,]>c | d>B A2 G>F | [EG,B,D]>E F>G A2 | B>c [dD,F,A,]>B A>A |
d>d e>c [d2D,2F,2A,2] | f2 d2 f>e | [dD,F,A,]>c d>B A2 | G>F [EG,B,D]>E F>G |
A2 B>c [dD,F,A,]>B | A>A d>d e>c | [d2D,2F,2A,2] f2 d2 | f>e [dD,F,A,]>c d>B |
A2 G>F [EG,B,D]>E | F>G A2 B>c | [dD,F,A,]>B A>A d>d | e>c [d2D,2F,2A,2] f2 |
d2 d>e [f2D,2F,2A,2] | f2 f2 g>f | [gE,G,B,]>f e2 e4 | [d2B,2D2F2] d2 |
d2 e>d [cA,CEG]>B | A2 A2 B>c | [dD,F,A,]>(3dcBA B>c | d>A [d/D,/F,/A,/](3edcB/A/ |
B>c d>f [e2E,2G,2B,2] | (3efg a2 (3ABc | [d2D,2F,2A,2] f2 d2 | d>e [f2D,2F,2A,2] f2 |
f2 g>f [gE,G,B,]>f | e2 e4 | [d2B,2D2F2] d2 d2 | e>d [cA,CEG]>B A2 |
A2 B>c [dD,F,A,]>(3dcB |A B>c d>A | [d/D,/F,/A,/](3edcB/A/ B>c | d>f [e2E,2G,2B,2] (3efg |
a2 (3ABc [d2D,2F,2A,2] | f2 d2 |


